lib/flags/sh-saint-helena.svg

<svg xmlns="http://www.w3.org/2000/svg" fill="none" aria-hidden="true" viewBox="0 0 42 30"><g id="Country=SH - Saint Helena, Size=sm (36x24)" filter="url(#filter0_dd_91_25153)"><g clip-path="url(#clip0_91_25153)"><g id="flag"><mask id="mask0_91_25153" width="36" height="24" x="3" y="2" maskUnits="userSpaceOnUse" style="mask-type:alpha"><rect id="mask" width="36" height="24" x="3" y="2" fill="white"/></mask><g mask="url(#mask0_91_25153)"><g id="contents"><path id="background" fill="#2E42A5" fill-rule="evenodd" d="M3 2V26H39V2H3Z" clip-rule="evenodd"/><mask id="mask1_91_25153" width="36" height="24" x="3" y="2" maskUnits="userSpaceOnUse" style="mask-type:alpha"><path id="background_2" fill="white" fill-rule="evenodd" d="M3 2V26H39V2H3Z" clip-rule="evenodd"/></mask><g mask="url(#mask1_91_25153)"><g id="gb - large"><g id="flag_2"><rect id="mask_2" width="20.25" height="14" x="3" y="2" fill="#2B409A"/><mask id="mask2_91_25153" width="21" height="14" x="3" y="2" maskUnits="userSpaceOnUse" style="mask-type:alpha"><rect id="mask_3" width="20.25" height="14" x="3" y="2" fill="white"/></mask><g mask="url(#mask2_91_25153)"><g id="contents_2"><g id="stripe"><path id="white" fill="#F7FCFF" d="M0.745117 14.9996L5.20119 16.7368L23.351 3.88854L25.7015 1.30701L20.9364 0.726383L13.5335 6.26307L7.57493 9.99351L0.745117 14.9996Z"/><path id="red" fill="#F50100" d="M1.35498 16.217L3.62514 17.2251L24.8573 1.06738H21.6697L1.35498 16.217Z"/></g><g id="stripe_2"><path id="white_2" fill="#F7FCFF" d="M25.5049 14.9996L21.0488 16.7368L2.89897 3.88854L0.548492 1.30701L5.31362 0.726383L12.7165 6.26307L18.6751 9.99351L25.5049 14.9996Z"/><path id="red_2" fill="#F50100" d="M25.353 15.8732L23.0829 16.8813L14.042 9.96339L11.3616 9.19046L0.322518 1.31593H3.51009L14.5429 9.00356L17.4735 9.93038L25.353 15.8732Z"/></g><g id="cross"><g id="red_3"><mask id="path-11-outside-1_91_25153" width="24" height="18" x="1" y="0" fill="black" maskUnits="userSpaceOnUse"><rect width="24" height="18" x="1" fill="white"/><path fill-rule="evenodd" d="M14.2326 2H11.9826V8H3V10H11.9826V16H14.2326V10H23.25V8H14.2326V2Z" clip-rule="evenodd"/></mask><path fill="#F50100" fill-rule="evenodd" d="M14.2326 2H11.9826V8H3V10H11.9826V16H14.2326V10H23.25V8H14.2326V2Z" clip-rule="evenodd"/><path fill="#F7FCFF" d="M11.9826 2V0.5H10.4826V2H11.9826ZM14.2326 2H15.7326V0.5H14.2326V2ZM11.9826 8V9.5H13.4826V8H11.9826ZM3 8V6.5H1.5V8H3ZM3 10H1.5V11.5H3V10ZM11.9826 10H13.4826V8.5H11.9826V10ZM11.9826 16H10.4826V17.5H11.9826V16ZM14.2326 16V17.5H15.7326V16H14.2326ZM14.2326 10V8.5H12.7326V10H14.2326ZM23.25 10V11.5H24.75V10H23.25ZM23.25 8H24.75V6.5H23.25V8ZM14.2326 8H12.7326V9.5H14.2326V8ZM11.9826 3.5H14.2326V0.5H11.9826V3.5ZM13.4826 8V2H10.4826V8H13.4826ZM3 9.5H11.9826V6.5H3V9.5ZM4.5 10V8H1.5V10H4.5ZM11.9826 8.5H3V11.5H11.9826V8.5ZM13.4826 16V10H10.4826V16H13.4826ZM14.2326 14.5H11.9826V17.5H14.2326V14.5ZM12.7326 10V16H15.7326V10H12.7326ZM23.25 8.5H14.2326V11.5H23.25V8.5ZM21.75 8V10H24.75V8H21.75ZM14.2326 9.5H23.25V6.5H14.2326V9.5ZM12.7326 2V8H15.7326V2H12.7326Z" mask="url(#path-11-outside-1_91_25153)"/></g></g></g></g></g></g><g id="masked"><path id="Path 2" fill="#B7E1FF" stroke="#F7FCFF" stroke-width="0.5" d="M27.7927 11.7827H27.5427V12.0327C27.5427 12.4655 27.5404 12.8896 27.5383 13.3037C27.5331 14.2913 27.5282 15.2217 27.5545 16.0756C27.5917 17.288 27.6918 18.3706 27.9502 19.2746C28.2097 20.1823 28.6338 20.9272 29.3297 21.4412C30.0243 21.9542 30.9586 22.214 32.194 22.214C33.4406 22.214 34.4011 21.8911 35.1254 21.3049C35.8472 20.7207 36.3099 19.8949 36.5998 18.9326C37.176 17.0204 37.0908 14.4922 36.932 12.0167L36.917 11.7827H36.6825H27.7927Z"/><mask id="mask3_91_25153" width="11" height="12" x="27" y="11" maskUnits="userSpaceOnUse" style="mask-type:alpha"><path id="Path 2_2" fill="white" stroke="white" stroke-width="0.5" d="M27.7927 11.7827H27.5427V12.0327C27.5427 12.4655 27.5404 12.8896 27.5383 13.3037C27.5331 14.2913 27.5282 15.2217 27.5545 16.0756C27.5917 17.288 27.6918 18.3706 27.9502 19.2746C28.2097 20.1823 28.6338 20.9272 29.3297 21.4412C30.0243 21.9542 30.9586 22.214 32.194 22.214C33.4406 22.214 34.4011 21.8911 35.1254 21.3049C35.8472 20.7207 36.3099 19.8949 36.5998 18.9326C37.176 17.0204 37.0908 14.4922 36.932 12.0167L36.917 11.7827H36.6825H27.7927Z"/></mask><g mask="url(#mask3_91_25153)"><rect id="Rectangle 58" width="6.75" height="2" x="30" y="20" fill="#2E42A5"/><g id="mark"><g id="Rectangle 56" filter="url(#filter1_d_91_25153)"><rect width="13.5" height="6" x="25.5" y="10" fill="#FDFF00"/></g><g id="top"><path id="Path 215" fill="#F7FCFF" stroke="#272727" d="M32.4413 14.0046C32.4442 14.0061 32.447 14.0076 32.4499 14.0092C32.4487 14.0097 32.4476 14.0103 32.4464 14.0108L32.4413 14.0046ZM30.9361 15.4564C30.9361 15.4563 30.9361 15.4563 30.9361 15.4563L31.0603 15.5688L30.9361 15.4564ZM31.8044 14.1155C31.7782 14.088 31.7543 14.0663 31.7363 14.0504C31.6881 14.0079 31.6367 13.9693 31.5982 13.9405C31.5909 13.9351 31.5839 13.9299 31.5771 13.9248C31.5438 13.9 31.5162 13.8795 31.4878 13.8568C31.3633 13.7575 31.3185 13.6922 31.3113 13.5848C31.3047 13.4849 31.2993 13.3878 31.2942 13.2964C31.2849 13.1291 31.2767 12.981 31.2638 12.8702C31.2521 12.7696 31.2318 12.6341 31.17 12.5C31.1913 12.5 31.2152 12.5013 31.2419 12.5043C31.2531 12.5133 31.2863 12.5436 31.3394 12.628C31.3794 12.6915 31.4152 12.7601 31.4576 12.8414L31.46 12.8461C31.4619 12.8498 31.464 12.8537 31.4661 12.8578C31.5003 12.9236 31.5559 13.0306 31.6199 13.1131C31.6346 13.1321 31.6532 13.16 31.6873 13.2115C31.699 13.2291 31.7125 13.2494 31.7283 13.2731C31.7819 13.3535 31.8517 13.4557 31.9335 13.558C31.9846 13.6218 32.0491 13.6973 32.1272 13.7721L31.8044 14.1155Z"/></g><g id="mast"><path id="Path 217" fill="#FDFF00" d="M30.9297 16.0439H31.1547V19.9991H30.9297V16.0439Z"/><g id="sail"><path id="Path 218" fill="#F7FCFF" fill-rule="evenodd" d="M30.1127 18.8125H32.1183C32.1183 18.8125 32.1376 19.3269 31.8332 19.2318C31.5287 19.1366 31.8637 19.3269 31.4005 19.2318C30.9372 19.1366 30.529 19.5305 30.4251 19.3335C30.3213 19.1366 29.9183 19.3895 30.0155 19.101C30.1127 18.8125 30.1127 18.8125 30.1127 18.8125Z" clip-rule="evenodd"/><rect id="Rectangle 57" width="1.95" height="0.2" x="30.1499" y="18.7637" fill="#212123"/></g><g id="sail_2"><path id="Path 218_2" fill="#F7FCFF" fill-rule="evenodd" d="M30.39 18.0654H31.9945C31.9945 18.0654 32.01 18.477 31.7664 18.4008C31.5229 18.3247 31.7909 18.477 31.4203 18.4008C31.0497 18.3247 30.7231 18.6398 30.64 18.4822C30.5569 18.3247 30.2346 18.527 30.3123 18.2962C30.39 18.0654 30.39 18.0654 30.39 18.0654Z" clip-rule="evenodd"/><rect id="Rectangle 57_2" width="1.56" height="0.2" x="30.4199" y="18.0264" fill="#212123"/></g><g id="sail_3"><path id="Path 218_3" fill="#F7FCFF" fill-rule="evenodd" d="M30.0977 17.2451H31.8359C31.8359 17.2451 31.8527 17.6567 31.5888 17.5805C31.3249 17.5044 31.6153 17.6567 31.2138 17.5805C30.8123 17.5044 30.4585 17.8195 30.3685 17.6619C30.2785 17.5044 29.9293 17.7067 30.0135 17.4759C30.0977 17.2451 30.0977 17.2451 30.0977 17.2451Z" clip-rule="evenodd"/><rect id="Rectangle 57_3" width="1.69" height="0.2" x="30.1299" y="17.2061" fill="#212123"/></g><g id="sail_4"><path id="Path 218_4" fill="#F7FCFF" fill-rule="evenodd" d="M30.2401 16.5562H31.8446C31.8446 16.5562 31.8601 17.0706 31.6165 16.9754C31.373 16.8802 31.641 17.0706 31.2704 16.9754C30.8998 16.8802 30.5732 17.2741 30.4901 17.0772C30.407 16.8802 30.0846 17.1331 30.1624 16.8446C30.2401 16.5562 30.2401 16.5562 30.2401 16.5562Z" clip-rule="evenodd"/><rect id="Rectangle 57_4" width="1.56" height="0.2" x="30.27" y="16.5073" fill="#212123"/></g></g><g id="mast_2"><path id="Path 217_2" fill="#FDFF00" d="M33.0854 16.5439H33.3104V20.4991H33.0854V16.5439Z"/><g id="sail_5"><path id="Path 218_5" fill="#F7FCFF" fill-rule="evenodd" d="M32.3627 18.9756H34.3683C34.3683 18.9756 34.3876 19.3871 34.0832 19.311C33.7787 19.2349 34.1137 19.3871 33.6505 19.311C33.1872 19.2349 32.779 19.55 32.6751 19.3924C32.5713 19.2349 32.1683 19.4371 32.2655 19.2064C32.3627 18.9756 32.3627 18.9756 32.3627 18.9756Z" clip-rule="evenodd"/><rect id="Rectangle 57_5" width="1.95" height="0.2" x="32.3999" y="18.9365" fill="#212123"/></g><g id="sail_6"><path id="Path 218_6" fill="#F7FCFF" fill-rule="evenodd" d="M32.6599 18.23H34.2358C34.2358 18.23 34.251 18.5386 34.0117 18.4815C33.7725 18.4244 34.0358 18.5386 33.6718 18.4815C33.3078 18.4244 32.987 18.6608 32.9054 18.5426C32.8238 18.4244 32.5072 18.5762 32.5836 18.4031C32.6599 18.23 32.6599 18.23 32.6599 18.23Z" clip-rule="evenodd"/><rect id="Rectangle 57_6" width="1.53214" height="0.2" x="32.689" y="18.2002" fill="#212123"/></g><g id="sail_7"><path id="Path 218_7" fill="#F7FCFF" fill-rule="evenodd" d="M32.3466 17.4097H34.0657C34.0657 17.4097 34.0823 17.7183 33.8214 17.6612C33.5604 17.6041 33.8476 17.7183 33.4505 17.6612C33.0534 17.6041 32.7035 17.8404 32.6145 17.7223C32.5255 17.6041 32.1801 17.7558 32.2633 17.5828C32.3466 17.4097 32.3466 17.4097 32.3466 17.4097Z" clip-rule="evenodd"/><rect id="Rectangle 57_7" width="1.67143" height="0.2" x="32.3784" y="17.3799" fill="#212123"/></g><g id="sail_8"><path id="Path 218_8" fill="#F7FCFF" fill-rule="evenodd" d="M32.4993 16.7192H34.0751C34.0751 16.7192 34.0903 17.1308 33.8511 17.0546C33.6119 16.9785 33.8751 17.1308 33.5111 17.0546C33.1471 16.9785 32.8264 17.2936 32.7448 17.1361C32.6632 16.9785 32.3466 17.1808 32.4229 16.95C32.4993 16.7192 32.4993 16.7192 32.4993 16.7192Z" clip-rule="evenodd"/><rect id="Rectangle 57_8" width="1.53214" height="0.2" x="32.5283" y="16.6802" fill="#212123"/></g></g><g id="mast_3"><path id="Path 217_3" fill="#FDFF00" d="M36.1772 16.0586H36.4022V21.3172H36.1772V16.0586Z"/><g id="sail_9"><path id="Path 218_9" fill="#F7FCFF" fill-rule="evenodd" d="M35.2575 19.2534H37.8101C37.8101 19.2534 37.8348 19.665 37.4472 19.5888C37.0597 19.5127 37.4861 19.665 36.8965 19.5888C36.307 19.5127 35.7874 19.8278 35.6552 19.6702C35.523 19.5127 35.0102 19.715 35.1338 19.4842C35.2575 19.2534 35.2575 19.2534 35.2575 19.2534Z" clip-rule="evenodd"/><rect id="Rectangle 57_9" width="2.48182" height="0.2" x="35.3047" y="19.2144" fill="#212123"/></g><g id="sail_10"><path id="Path 218_10" fill="#F7FCFF" fill-rule="evenodd" d="M35.6361 18.2554H37.6417C37.6417 18.2554 37.6611 18.564 37.3566 18.5069C37.0521 18.4498 37.3872 18.564 36.9239 18.5069C36.4607 18.4498 36.0524 18.6861 35.9486 18.568C35.8447 18.4498 35.4417 18.6015 35.5389 18.4285C35.6361 18.2554 35.6361 18.2554 35.6361 18.2554Z" clip-rule="evenodd"/><rect id="Rectangle 57_10" width="1.95" height="0.2" x="35.6733" y="18.231" fill="#212123"/></g><g id="sail_11"><path id="Path 218_11" fill="#F7FCFF" fill-rule="evenodd" d="M35.4315 16.9351H37.4371C37.4371 16.9351 37.4565 17.3466 37.152 17.2705C36.8475 17.1943 37.1826 17.3466 36.7193 17.2705C36.2561 17.1943 35.8479 17.5094 35.744 17.3519C35.6401 17.1943 35.2372 17.3966 35.3343 17.1658C35.4315 16.9351 35.4315 16.9351 35.4315 16.9351Z" clip-rule="evenodd"/><rect id="Rectangle 57_11" width="1.95" height="0.2" x="35.4688" y="16.896" fill="#212123"/></g></g><path id="ship base" fill="#272727" fill-rule="evenodd" d="M30.208 19.6869C30.208 19.6869 31.2494 20.1899 32.8371 20.1033C34.4248 20.0166 34.3108 20.289 34.7226 19.9015C35.1344 19.5139 35.1706 19.6003 35.6843 19.3969C36.1979 19.1935 36.2716 19.0015 36.5364 19.0015C36.8013 19.0015 39.6213 18.9009 39.6213 18.9009C39.6213 18.9009 39.3632 19.1068 39.3632 19.3969C39.3632 19.6869 39.5352 19.7167 39.3632 19.9797C39.1912 20.2427 38.9968 20.5944 38.7471 20.6965C38.4974 20.7985 35.1269 20.8631 34.2675 20.8631C33.408 20.8631 31.6428 20.9481 31.4397 20.8631C31.2366 20.778 30.208 19.6869 30.208 19.6869Z" clip-rule="evenodd"/><path id="cliffs" fill="#CE6201" fill-rule="evenodd" d="M27.8823 17.6865L28.8872 16.8638C28.8872 16.8638 28.9311 16.8638 29.1178 17.2752C29.3046 17.6865 29.3134 18.2492 29.5077 18.1087C29.7019 17.9682 30.0009 18.0979 30.1268 17.6865C30.2526 17.2752 30.2447 16.7424 30.4048 17.0088C30.5649 17.2752 30.4698 16.8858 30.7252 17.4972C30.9806 18.1087 31.0818 17.2345 31.2222 18.1087C31.3627 18.9829 31.4816 19.2845 31.4816 19.4878C31.4816 19.6912 32.7609 20.2971 32.2702 20.7143C31.7795 21.1316 31.9184 20.9349 31.4816 21.1973C31.0448 21.4597 30.5972 21.3071 31.2222 21.5132C31.8473 21.7193 31.7578 22.0929 31.7578 22.3684C31.7578 22.6439 31.7193 22.7673 31.2222 22.7056C30.7252 22.6439 30.1207 22.8638 30 22.8638C29.8792 22.8638 28.422 22.5998 28.422 22.0565C28.422 21.5132 27.8823 17.6865 27.8823 17.6865Z" clip-rule="evenodd"/></g></g></g></g></g></g></g></g></g><defs><filter id="filter0_dd_91_25153" width="42" height="30" x="0" y="0" color-interpolation-filters="sRGB" filterUnits="userSpaceOnUse"><feFlood flood-opacity="0" result="BackgroundImageFix"/><feColorMatrix in="SourceAlpha" result="hardAlpha" values="0 0 0 0 0 0 0 0 0 0 0 0 0 0 0 0 0 0 127 0"/><feOffset dy="1"/><feGaussianBlur stdDeviation="1"/><feColorMatrix values="0 0 0 0 0.0627451 0 0 0 0 0.0941176 0 0 0 0 0.156863 0 0 0 0.06 0"/><feBlend in2="BackgroundImageFix" result="effect1_dropShadow_91_25153"/><feColorMatrix in="SourceAlpha" result="hardAlpha" values="0 0 0 0 0 0 0 0 0 0 0 0 0 0 0 0 0 0 127 0"/><feOffset dy="1"/><feGaussianBlur stdDeviation="1.5"/><feColorMatrix values="0 0 0 0 0.0627451 0 0 0 0 0.0941176 0 0 0 0 0.156863 0 0 0 0.1 0"/><feBlend in2="effect1_dropShadow_91_25153" result="effect2_dropShadow_91_25153"/><feBlend in="SourceGraphic" in2="effect2_dropShadow_91_25153" result="shape"/></filter><filter id="filter1_d_91_25153" width="13.5" height="7" x="25.5" y="10" color-interpolation-filters="sRGB" filterUnits="userSpaceOnUse"><feFlood flood-opacity="0" result="BackgroundImageFix"/><feColorMatrix in="SourceAlpha" result="hardAlpha" values="0 0 0 0 0 0 0 0 0 0 0 0 0 0 0 0 0 0 127 0"/><feOffset dy="1"/><feColorMatrix values="0 0 0 0 0 0 0 0 0 0 0 0 0 0 0 0 0 0 0.5 0"/><feBlend in2="BackgroundImageFix" result="effect1_dropShadow_91_25153"/><feBlend in="SourceGraphic" in2="effect1_dropShadow_91_25153" result="shape"/></filter><clipPath id="clip0_91_25153"><rect width="36" height="24" x="3" y="2" fill="white" rx="2"/></clipPath></defs></svg>

<svg xmlns="http://www.w3.org/2000/svg" fill="none" aria-hidden="true" viewBox="0 0 42 30"><g filter="url(#a)"><g clip-path="url(#b)"><mask id="c" width="36" height="24" x="3" y="2" maskUnits="userSpaceOnUse" style="mask-type:alpha"><path fill="#fff" d="M3 2h36v24H3z"/></mask><g mask="url(#c)"><path fill="#2E42A5" fill-rule="evenodd" d="M3 2v24h36V2H3Z" clip-rule="evenodd"/><mask id="d" width="36" height="24" x="3" y="2" maskUnits="userSpaceOnUse" style="mask-type:alpha"><path fill="#fff" fill-rule="evenodd" d="M3 2v24h36V2H3Z" clip-rule="evenodd"/></mask><g mask="url(#d)"><path fill="#2B409A" d="M3 2h20.25v14H3z"/><mask id="e" width="21" height="14" x="3" y="2" maskUnits="userSpaceOnUse" style="mask-type:alpha"><path fill="#fff" d="M3 2h20.25v14H3z"/></mask><g mask="url(#e)"><path fill="#F7FCFF" d="m.745 15 4.456 1.737 18.15-12.848 2.35-2.582-4.765-.58-7.402 5.536-5.96 3.73L.746 15Z"/><path fill="#F50100" d="m1.355 16.217 2.27 1.008L24.857 1.067H21.67L1.355 16.217Z"/><path fill="#F7FCFF" d="m25.505 15-4.456 1.737L2.899 3.889.549 1.307l4.765-.58 7.402 5.536 5.96 3.73L25.504 15Z"/><path fill="#F50100" d="m25.353 15.873-2.27 1.008-9.041-6.918-2.68-.773L.322 1.316H3.51l11.033 7.688 2.93.926 7.88 5.943Z"/><mask id="f" width="24" height="18" x="1" y="0" fill="#000" maskUnits="userSpaceOnUse"><path fill="#fff" d="M1 0h24v18H1z"/><path fill-rule="evenodd" d="M14.233 2h-2.25v6H3v2h8.983v6h2.25v-6h9.017V8h-9.017V2Z" clip-rule="evenodd"/></mask><path fill="#F50100" fill-rule="evenodd" d="M14.233 2h-2.25v6H3v2h8.983v6h2.25v-6h9.017V8h-9.017V2Z" clip-rule="evenodd"/><path fill="#F7FCFF" d="M11.983 2V.5h-1.5V2h1.5Zm2.25 0h1.5V.5h-1.5V2Zm-2.25 6v1.5h1.5V8h-1.5ZM3 8V6.5H1.5V8H3Zm0 2H1.5v1.5H3V10Zm8.983 0h1.5V8.5h-1.5V10Zm0 6h-1.5v1.5h1.5V16Zm2.25 0v1.5h1.5V16h-1.5Zm0-6V8.5h-1.5V10h1.5Zm9.017 0v1.5h1.5V10h-1.5Zm0-2h1.5V6.5h-1.5V8Zm-9.017 0h-1.5v1.5h1.5V8Zm-2.25-4.5h2.25v-3h-2.25v3Zm1.5 4.5V2h-3v6h3ZM3 9.5h8.983v-3H3v3Zm1.5.5V8h-3v2h3Zm7.483-1.5H3v3h8.983v-3Zm1.5 7.5v-6h-3v6h3Zm.75-1.5h-2.25v3h2.25v-3Zm-1.5-4.5v6h3v-6h-3ZM23.25 8.5h-9.017v3h9.017v-3Zm-1.5-.5v2h3V8h-3Zm-7.517 1.5h9.017v-3h-9.017v3Zm-1.5-7.5v6h3V2h-3Z" mask="url(#f)"/></g><path fill="#B7E1FF" stroke="#F7FCFF" stroke-width=".5" d="M27.793 11.783h-.25v.25c0 .433-.003.857-.005 1.27-.005.988-.01 1.919.017 2.773.037 1.212.137 2.295.395 3.199.26.907.684 1.652 1.38 2.166.694.513 1.629.773 2.864.773 1.247 0 2.207-.323 2.931-.91.722-.583 1.185-1.41 1.475-2.371.576-1.913.49-4.44.332-6.916l-.015-.234h-9.125Z"/><mask id="g" width="11" height="12" x="27" y="11" maskUnits="userSpaceOnUse" style="mask-type:alpha"><path fill="#fff" stroke="#fff" stroke-width=".5" d="M27.793 11.783h-.25v.25c0 .433-.003.857-.005 1.27-.005.988-.01 1.919.017 2.773.037 1.212.137 2.295.395 3.199.26.907.684 1.652 1.38 2.166.694.513 1.629.773 2.864.773 1.247 0 2.207-.323 2.931-.91.722-.583 1.185-1.41 1.475-2.371.576-1.913.49-4.44.332-6.916l-.015-.234h-9.125Z"/></mask><g mask="url(#g)"><path fill="#2E42A5" d="M30 20h6.75v2H30z"/><g filter="url(#h)"><path fill="#FDFF00" d="M25.5 10H39v6H25.5z"/></g><path fill="#F7FCFF" stroke="#272727" d="M32.441 14.005a.36.36 0 0 1 .009.004l-.004.002-.005-.006Zm-1.505 1.451.124.113-.124-.113Zm.868-1.34a1.075 1.075 0 0 0-.068-.066 2.21 2.21 0 0 0-.159-.125l-.09-.068c-.124-.1-.168-.165-.176-.272l-.017-.289c-.01-.167-.017-.315-.03-.426a1.204 1.204 0 0 0-.094-.37c.021 0 .045.001.072.004.011.01.044.04.097.124.04.063.076.132.119.213l.002.005.006.012c.034.066.09.173.154.255a54.597 54.597 0 0 0 .108.16c.054.08.124.183.205.285.052.064.116.14.194.214l-.323.344Z"/><path fill="#FDFF00" d="M30.93 16.044h.225v3.955h-.225v-3.955Z"/><path fill="#F7FCFF" fill-rule="evenodd" d="M30.113 18.813h2.005s.02.514-.285.419c-.304-.095.03.095-.432 0-.464-.095-.872.299-.976.102-.104-.197-.507.056-.41-.233l.098-.288Z" clip-rule="evenodd"/><path fill="#212123" d="M30.15 18.764h1.95v.2h-1.95z"/><path fill="#F7FCFF" fill-rule="evenodd" d="M30.39 18.065h1.604s.016.412-.228.336c-.243-.076.025.076-.346 0-.37-.076-.697.239-.78.081-.083-.157-.405.045-.328-.186l.078-.23Z" clip-rule="evenodd"/><path fill="#212123" d="M30.42 18.026h1.56v.2h-1.56z"/><path fill="#F7FCFF" fill-rule="evenodd" d="M30.098 17.245h1.738s.017.412-.247.335c-.264-.076.026.077-.375 0-.402-.076-.755.24-.845.082-.09-.158-.44.045-.355-.186l.084-.23Z" clip-rule="evenodd"/><path fill="#212123" d="M30.13 17.206h1.69v.2h-1.69z"/><path fill="#F7FCFF" fill-rule="evenodd" d="M30.24 16.556h1.605s.015.515-.229.42c-.243-.096.025.095-.346 0-.37-.096-.697.298-.78.101-.083-.197-.405.056-.328-.232l.078-.289Z" clip-rule="evenodd"/><path fill="#212123" d="M30.27 16.507h1.56v.2h-1.56z"/><path fill="#FDFF00" d="M33.085 16.544h.225v3.955h-.225v-3.955Z"/><path fill="#F7FCFF" fill-rule="evenodd" d="M32.363 18.976h2.005s.02.411-.285.335c-.304-.076.03.076-.432 0-.464-.076-.872.239-.976.081-.104-.157-.507.045-.41-.186l.098-.23Z" clip-rule="evenodd"/><path fill="#212123" d="M32.4 18.936h1.95v.2H32.4z"/><path fill="#F7FCFF" fill-rule="evenodd" d="M32.66 18.23h1.576s.015.309-.224.252c-.24-.058.024.057-.34 0-.364-.058-.685.179-.767.06-.081-.118-.398.034-.321-.139l.076-.173Z" clip-rule="evenodd"/><path fill="#212123" d="M32.689 18.2h1.532v.2h-1.532z"/><path fill="#F7FCFF" fill-rule="evenodd" d="M32.347 17.41h1.719s.016.308-.245.251c-.26-.057.027.057-.37 0-.398-.057-.748.18-.837.061-.088-.118-.434.034-.35-.14l.083-.172Z" clip-rule="evenodd"/><path fill="#212123" d="M32.378 17.38h1.671v.2h-1.671z"/><path fill="#F7FCFF" fill-rule="evenodd" d="M32.5 16.72h1.575s.015.41-.224.335c-.24-.076.024.076-.34 0-.364-.076-.685.239-.766.081-.082-.157-.398.045-.322-.186l.076-.23Z" clip-rule="evenodd"/><path fill="#212123" d="M32.528 16.68h1.532v.2h-1.532z"/><path fill="#FDFF00" d="M36.177 16.059h.225v5.258h-.225V16.06Z"/><path fill="#F7FCFF" fill-rule="evenodd" d="M35.258 19.253h2.552s.025.412-.363.336c-.387-.076.04.076-.55 0-.59-.076-1.11.239-1.242.081-.132-.157-.645.045-.521-.186l.123-.23Z" clip-rule="evenodd"/><path fill="#212123" d="M35.305 19.214h2.482v.2h-2.482z"/><path fill="#F7FCFF" fill-rule="evenodd" d="M35.636 18.255h2.006s.02.309-.285.252c-.305-.057.03.057-.433 0-.463-.057-.872.18-.975.061-.104-.118-.507.034-.41-.14l.097-.173Z" clip-rule="evenodd"/><path fill="#212123" d="M35.673 18.231h1.95v.2h-1.95z"/><path fill="#F7FCFF" fill-rule="evenodd" d="M35.431 16.935h2.006s.02.412-.285.335c-.305-.076.03.077-.433 0-.463-.076-.871.24-.975.082-.104-.158-.507.045-.41-.186l.097-.23Z" clip-rule="evenodd"/><path fill="#212123" d="M35.469 16.896h1.95v.2h-1.95z"/><path fill="#272727" fill-rule="evenodd" d="M30.208 19.687s1.041.503 2.63.416c1.587-.086 1.473.186 1.885-.202.411-.387.448-.3.961-.504.514-.203.588-.395.852-.395.265 0 3.085-.101 3.085-.101s-.258.206-.258.496c0 .29.172.32 0 .583-.172.263-.366.614-.616.716-.25.102-3.62.167-4.48.167-.859 0-2.624.085-2.827 0-.203-.085-1.232-1.176-1.232-1.176Z" clip-rule="evenodd"/><path fill="#CE6201" fill-rule="evenodd" d="m27.882 17.686 1.005-.822s.044 0 .23.411c.188.412.196.974.39.834.195-.14.494-.011.62-.423.126-.41.118-.944.278-.677.16.266.065-.123.32.488.256.612.357-.262.497.612s.26 1.175.26 1.379c0 .203 1.279.81.788 1.226-.49.418-.352.22-.788.483-.437.263-.885.11-.26.316.625.206.536.58.536.855 0 .276-.039.4-.536.338-.497-.062-1.101.158-1.222.158-.12 0-1.578-.264-1.578-.808 0-.543-.54-4.37-.54-4.37Z" clip-rule="evenodd"/></g></g></g></g></g><defs><filter id="a" width="42" height="30" x="0" y="0" color-interpolation-filters="sRGB" filterUnits="userSpaceOnUse"><feFlood flood-opacity="0" result="BackgroundImageFix"/><feColorMatrix in="SourceAlpha" result="hardAlpha" values="0 0 0 0 0 0 0 0 0 0 0 0 0 0 0 0 0 0 127 0"/><feOffset dy="1"/><feGaussianBlur stdDeviation="1"/><feColorMatrix values="0 0 0 0 0.0627451 0 0 0 0 0.0941176 0 0 0 0 0.156863 0 0 0 0.06 0"/><feBlend in2="BackgroundImageFix" result="effect1_dropShadow_91_25153"/><feColorMatrix in="SourceAlpha" result="hardAlpha" values="0 0 0 0 0 0 0 0 0 0 0 0 0 0 0 0 0 0 127 0"/><feOffset dy="1"/><feGaussianBlur stdDeviation="1.5"/><feColorMatrix values="0 0 0 0 0.0627451 0 0 0 0 0.0941176 0 0 0 0 0.156863 0 0 0 0.1 0"/><feBlend in2="effect1_dropShadow_91_25153" result="effect2_dropShadow_91_25153"/><feBlend in="SourceGraphic" in2="effect2_dropShadow_91_25153" result="shape"/></filter><filter id="h" width="13.5" height="7" x="25.5" y="10" color-interpolation-filters="sRGB" filterUnits="userSpaceOnUse"><feFlood flood-opacity="0" result="BackgroundImageFix"/><feColorMatrix in="SourceAlpha" result="hardAlpha" values="0 0 0 0 0 0 0 0 0 0 0 0 0 0 0 0 0 0 127 0"/><feOffset dy="1"/><feColorMatrix values="0 0 0 0 0 0 0 0 0 0 0 0 0 0 0 0 0 0 0.5 0"/><feBlend in2="BackgroundImageFix" result="effect1_dropShadow_91_25153"/><feBlend in="SourceGraphic" in2="effect1_dropShadow_91_25153" result="shape"/></filter><clipPath id="b"><rect width="36" height="24" x="3" y="2" fill="#fff" rx="2"/></clipPath></defs></svg>
